X:1
T:Lokomobilen
R:Schottis
C:Vifast Björklund
S:Efter Anders Hällström
O:Norrbotten
Z:Anton Teljebäck
M:4/4
L:1/8
K:G
|:BB/c/ dd/B/ G/G/G/A/ BB | DD/F/ AA G/G/G/B/ dd/c/ |BB/c/ dd/B/ G/G/G/A/ BB | DD/F/ AB/A/ AG G2 :|
|:ee/e/ ed/B/ dB B2 | DD/F/ AA G/G/G/B/ dd |ee/e/ ed/B/ dB B2 | DD/F/ AB/A/ AG G2 :|

